; generated by PrusaSlicer 2.7.4+linux-x64-GTK2 on 2024-06-03 at 08:39:07 UTC


;
;
; 

; external perimeters extrusion width = 0.60mm
; perimeters extrusion width = 0.50mm
; infill extrusion width = 0.50mm
; solid infill extrusion width = 0.50mm
; top infill extrusion width = 0.45mm
; first layer extrusion width = 0.42mm

M73 P0 R7
M73 C5
M73 Q0 S7
M73 D5
M201 X1000 Y1000 Z200 E5000 ; sets maximum accelerations, mm/sec^2
M203 X200 Y200 Z12 E120 ; sets maximum feedrates, mm / sec
M204 S1250 T1250 ; sets acceleration (S) and retract acceleration (R), mm/sec^2
M205 X8.00 Y8.00 Z0.40 E4.50 ; sets the jerk limits, mm/sec
M205 S0 T0 ; sets the minimum extruding and travel feed rate, mm/sec

; printing object asm_SFT-Mk4-SFTFlywheel.stl id:0 copy 0
; stop printing object asm_SFT-Mk4-SFTFlywheel.stl id:0 copy 0

;TYPE:Custom
M862.3 P "MK3S" ; printer model check
M862.1 P0.4 ; nozzle diameter check
M115 U3.13.3 ; tell printer latest fw version
G90 ; use absolute coordinates
M83 ; extruder relative mode
M104 S215 ; set extruder temp
M140 S60 ; set bed temp
M190 S60 ; wait for bed temp
M109 S215 ; wait for extruder temp
G28 W ; home all without mesh bed level
G80 X119.374 Y96.9106 W14.9983 H14.9993 ; mesh bed levelling

G1 Z0.2 F720
G1 Y-3 F1000 ; go outside print area
G92 E0
G1 X60 E9 F1000 ; intro line
G1 X100 E12.5 F1000 ; intro line
M73 P0 R6
M73 Q0 S6

G92 E0
M221 S95

; Don't change E values below. Excessive value can damage the printer.

M907 E538 ; set extruder motor current
G21 ; set units to millimeters
G90 ; use absolute coordinates
M83 ; use relative distances for extrusion

M900 K0.05 ; Filament gcode LA 1.5
M900 K30 ; Filament gcode LA 1.0




M107
;LAYER_CHANGE
;Z:0.2
;HEIGHT:0.2
G1 E-.8 F2100
M73 P1 R6
M73 Q1 S6
G1 Z.6 F720
; printing object asm_SFT-Mk4-SFTFlywheel.stl id:0 copy 0
G1 X120.236 Y103.471 F10800
G1 Z.2 F720
G1 E.8 F2100
M204 S800
;TYPE:Perimeter
;WIDTH:0.419999
G1 F1200
G1 X120.238 Y103.442 E.00091
G1 X120.355 Y102.831 E.01951
G1 X120.512 Y102.278 E.01802
G1 X120.747 Y101.672 E.02038
G1 X121.094 Y101.006 E.02355
;WIDTH:0.420826
G1 X121.442 Y100.475 E.01995
G1 X121.424 Y100.559 E.0027
G1 X121.605 Y100.94 E.01325
;WIDTH:0.419999
G1 X123.198 Y102.39 E.06754
G1 X123.666 Y102.731 E.01816
G1 X124.104 Y103.008 E.01625
G1 X124.018 Y103.105 E.00406
G1 X123.765 Y103.542 E.01583
G1 X123.617 Y104.076 E.01737
G1 X123.597 Y104.619 E.01704
G1 X123.653 Y104.969 E.01111
G1 X123.798 Y105.56 E.01908
G1 X124.087 Y106.147 E.02051
G1 X124.486 Y106.665 E.0205
G1 X124.98 Y107.093 E.02049
G1 X125.549 Y107.415 E.0205
G1 X126.149 Y107.614 E.01982
G1 X126.798 Y107.694 E.0205
G1 X127.45 Y107.644 E.0205
G1 X128.08 Y107.465 E.02054
G1 X128.661 Y107.166 E.02049
G1 X129.172 Y106.757 E.02052
G1 X129.591 Y106.255 E.0205
G1 X129.903 Y105.68 E.02051
M73 Q2 S6
G1 X130.094 Y105.054 E.02052
G1 X130.158 Y104.403 E.02051
G1 X130.091 Y103.752 E.02052
G1 X129.897 Y103.128 E.02049
G1 X129.583 Y102.554 E.02051
G1 X129.162 Y102.054 E.02049
G1 X128.649 Y101.647 E.02053
G1 X128.018 Y101.336 E.02206
G1 X127.42 Y101.173 E.01943
G1 X126.61 Y101.14 E.02542
G1 X126.058 Y101.262 E.01773
M73 P2 R6
G1 X125.575 Y101.502 E.01691
G1 X125.289 Y101.758 E.01203
G1 X125.013 Y101.38 E.01467
G1 X124.668 Y100.956 E.01714
G1 X124.299 Y100.575 E.01663
G1 X123.043 Y99.397 E.05399
G1 X122.8 Y99.263 E.0087
G1 X122.496 Y99.332 E.00977
G1 X122.767 Y99.1 E.01119
G1 X123.314 Y98.72 E.02088
G1 X123.901 Y98.392 E.02108
G1 X124.515 Y98.126 E.02098
G1 X125.152 Y97.922 E.02097
G1 X125.807 Y97.783 E.02099
G1 X126.472 Y97.71 E.02098
G1 X127.141 Y97.703 E.02098
G1 X127.807 Y97.763 E.02097
G1 X128.464 Y97.889 E.02098
G1 X129.099 Y98.078 E.02077
G1 X130.03 Y98.487 E.03188
G1 X130.599 Y98.827 E.02078
G1 X131.136 Y99.226 E.02098
G1 X131.631 Y99.676 E.02098
G1 X132.079 Y100.173 E.02098
G1 X132.475 Y100.713 E.021
G1 X132.772 Y101.215 E.01829
G1 X133.013 Y101.715 E.0174
G1 X133.199 Y102.191 E.01602
G1 X133.399 Y102.875 E.02234
G1 X133.498 Y103.376 E.01601
G1 X133.564 Y103.928 E.01743
G1 X133.584 Y104.511 E.01829
G1 X133.541 Y105.178 E.02096
G1 X133.431 Y105.838 E.02098
G1 X133.257 Y106.484 E.02098
G1 X133.018 Y107.11 E.02101
G1 X132.719 Y107.708 E.02096
G1 X132.362 Y108.274 E.02098
G1 X131.95 Y108.801 E.02097
G1 X131.487 Y109.285 E.021
G1 X130.979 Y109.72 E.02097
G1 X130.43 Y110.102 E.02097
G1 X129.846 Y110.428 E.02097
G1 X129.232 Y110.694 E.02098
G1 X128.594 Y110.898 E.021
G1 X127.94 Y111.037 E.02096
G1 X127.36 Y111.101 E.0183
G1 X126.804 Y111.115 E.01744
G1 X126.253 Y111.076 E.01732
G1 X125.498 Y110.975 E.02388
G1 X124.878 Y110.815 E.02008
G1 X124.23 Y110.575 E.02167
G1 X123.648 Y110.293 E.02028
G1 X123.061 Y109.929 E.02166
G1 X122.547 Y109.537 E.02027
G1 X122.043 Y109.065 E.02165
G1 X121.617 Y108.578 E.02029
G1 X121.216 Y108.015 E.02167
G1 X120.895 Y107.454 E.02027
G1 X120.614 Y106.823 E.02166
G1 X120.402 Y106.173 E.02144
G1 X120.234 Y105.343 E.02655
G1 X120.178 Y104.78 E.01774
G1 X120.167 Y104.224 E.01744
G1 X120.23 Y103.53 E.02185
M204 S1000
G1 X120.23 Y103.53 F10800
G1 X119.864 Y103.437
M204 S800
;TYPE:External perimeter
G1 F1200
G1 X119.888 Y103.247 E.006
G1 X119.991 Y102.733 E.01644
G1 X120.159 Y102.143 E.01923
G1 X120.41 Y101.503 E.02155
G1 X120.775 Y100.805 E.0247
;WIDTH:0.420826
G1 X121.065 Y100.347 E.01703
;WIDTH:0.467664
G1 X121.153 Y100.272 E.00408
;WIDTH:0.514501
G1 X121.24 Y100.197 E.0045
;WIDTH:0.561338
G1 X121.328 Y100.121 E.00501
;WIDTH:0.568749
G1 X121.576 Y99.812 E.01732
G1 X122.153 Y99.221 E.03611
;WIDTH:0.559106
G1 X122.281 Y99.081 E.00814
;WIDTH:0.512737
G1 X122.409 Y98.941 E.00741
;WIDTH:0.466368
G1 X122.536 Y98.801 E.00666
;WIDTH:0.419999
G1 X123.113 Y98.399 E.02205
G1 X123.733 Y98.054 E.02225
G1 X124.382 Y97.773 E.02217
G1 X125.055 Y97.558 E.02215
G1 X125.747 Y97.411 E.02218
G1 X126.449 Y97.333 E.02215
G1 X127.156 Y97.326 E.02217
G1 X127.86 Y97.39 E.02216
G1 X128.554 Y97.523 E.02216
G1 X129.229 Y97.724 E.02208
G1 X130.203 Y98.152 E.03336
G1 X130.808 Y98.513 E.02209
G1 X131.376 Y98.934 E.02217
G1 X131.899 Y99.41 E.02217
G1 X132.372 Y99.935 E.02216
G1 X132.79 Y100.505 E.02216
G1 X133.096 Y101.023 E.01886
G1 X133.355 Y101.557 E.01861
G1 X133.555 Y102.067 E.01718
G1 X133.766 Y102.787 E.02352
G1 X133.872 Y103.325 E.01719
G1 X133.941 Y103.914 E.01859
G1 X133.962 Y104.516 E.01889
G1 X133.916 Y105.222 E.02218
G1 X133.8 Y105.919 E.02215
G1 X133.616 Y106.601 E.02215
G1 X133.364 Y107.262 E.02218
G1 X133.048 Y107.894 E.02215
G1 X132.67 Y108.491 E.02216
G1 X132.235 Y109.048 E.02216
G1 X131.747 Y109.559 E.02215
G1 X131.21 Y110.019 E.02217
G1 X130.63 Y110.423 E.02216
G1 X130.013 Y110.767 E.02215
G1 X129.364 Y111.048 E.02217
G1 X128.691 Y111.263 E.02215
G1 X128 Y111.41 E.02215
G1 X127.297 Y111.487 E.02217
G1 X126.592 Y111.494 E.02211
G1 X125.535 Y111.372 E.03336
G1 X124.851 Y111.205 E.02208
M73 Q3 S6
G1 X124.185 Y110.97 E.02214
G1 X123.545 Y110.67 E.02216
G1 X122.938 Y110.308 E.02216
G1 X122.37 Y109.886 E.02219
G1 X121.847 Y109.411 E.02215
G1 X121.374 Y108.886 E.02216
G1 X120.956 Y108.316 E.02216
G1 X120.597 Y107.707 E.02217
G1 X120.3 Y107.066 E.02215
M73 P3 R6
G1 X120.068 Y106.398 E.02217
G1 X119.904 Y105.711 E.02215
G1 X119.809 Y105.01 E.02218
G1 X119.788 Y104.409 E.01886
G1 X119.816 Y103.814 E.01868
G1 X119.857 Y103.497 E.01002
M204 S1000
;WIPE_START
G1 F8640
G1 X119.864 Y103.437 E-.01395
G1 X119.888 Y103.247 E-.04422
G1 X119.991 Y102.733 E-.12104
G1 X120.159 Y102.143 E-.14165
G1 X120.41 Y101.503 E-.15874
G1 X120.775 Y100.805 E-.18188
G1 X121.065 Y100.347 E-.12517
G1 X121.109 Y100.309 E-.01335
;WIPE_END
G1 Z.6 F720
G1 X124.648 Y102.779 F10800
G1 Z.2 F720
G1 E.8 F2100
M204 S800
;WIDTH:0.526638
G1 F1200
G1 X125.06 Y102.334 E.02439
;WIDTH:0.516162
G1 X125.062 Y102.332 E.00011
M204 S1000
;WIPE_START
G1 F8640
G1 X125.06 Y102.334 E-.00065
G1 X124.648 Y102.779 E-.14003
;WIPE_END
G1 E-.65932 F2100
G1 Z.6 F720
G1 X129.755 Y104.133 F10800
G1 Z.2 F720
G1 E.8 F2100
M204 S800
;WIDTH:0.419999
G1 F1200
G1 X129.782 Y104.435 E.00951
G1 X129.72 Y105.011 E.01816
G1 X129.544 Y105.563 E.01817
G1 X129.263 Y106.069 E.01815
G1 X128.887 Y106.51 E.01817
G1 X128.431 Y106.867 E.01816
G1 X127.913 Y107.127 E.01817
G1 X127.354 Y107.279 E.01816
G1 X126.776 Y107.318 E.01816
G1 X126.201 Y107.241 E.01819
G1 X125.675 Y107.059 E.01745
G1 X125.174 Y106.769 E.01815
G1 X124.74 Y106.386 E.01815
G1 X124.391 Y105.924 E.01815
G1 X124.14 Y105.402 E.01816
G1 X124.022 Y104.891 E.01644
G1 X123.974 Y104.634 E.0082
G1 X123.994 Y104.09 E.01707
G1 X124.179 Y103.555 E.01775
G1 X124.482 Y103.143 E.01604
;WIDTH:0.453337
G1 X124.53 Y103.025 E.00435
;WIDTH:0.486675
G1 X124.578 Y102.907 E.0047
;WIDTH:0.520012
G1 X124.626 Y102.79 E.00502
G1 X124.551 Y102.776 E.00303
;WIDTH:0.486675
G1 X124.476 Y102.762 E.00282
;WIDTH:0.453337
G1 X124.401 Y102.748 E.0026
;WIDTH:0.419999
G1 X124.069 Y102.543 E.01223
G1 X123.654 Y102.262 E.01571
G1 X123.131 Y101.84 E.02107
G1 X121.861 Y100.663 E.05429
;WIDTH:0.467112
G1 X121.828 Y100.576 E.00328
;WIDTH:0.514225
G1 X121.794 Y100.49 E.00362
;WIDTH:0.561338
G1 X121.761 Y100.403 E.00401
;WIDTH:0.56454
G1 X122.489 Y99.614 E.04656
;WIDTH:0.559106
G1 X122.561 Y99.618 E.0031
;WIDTH:0.512737
G1 X122.633 Y99.623 E.00282
;WIDTH:0.466368
G1 X122.704 Y99.627 E.0025
;WIDTH:0.419999
G1 X124.041 Y100.85 E.05681
G1 X124.397 Y101.218 E.01605
G1 X124.72 Y101.617 E.0161
G1 X125.042 Y102.06 E.01717
;WIDTH:0.461913
G1 X125.065 Y102.174 E.00405
;WIDTH:0.503826
G1 X125.087 Y102.288 E.00445
;WIDTH:0.516146
G1 X125.062 Y102.332 E.00199
G1 X125.289 Y102.2 E.01033
;WIDTH:0.468073
G1 X125.516 Y102.068 E.00928
;WIDTH:0.419999
G1 X125.743 Y101.84 E.01009
G1 X126.226 Y101.6 E.01691
G1 X126.721 Y101.509 E.01578
G1 X127.397 Y101.549 E.02123
G1 X127.911 Y101.697 E.01677
G1 X128.472 Y101.98 E.0197
G1 X128.922 Y102.345 E.01817
G1 X129.291 Y102.792 E.01817
G1 X129.563 Y103.303 E.01815
G1 X129.729 Y103.858 E.01816
G1 X129.749 Y104.074 E.0068
M204 S1000
;WIPE_START
G1 F8640
G1 X129.755 Y104.133 E-.01369
G1 X129.782 Y104.435 E-.07001
G1 X129.72 Y105.011 E-.13377
G1 X129.544 Y105.563 E-.13378
G1 X129.263 Y106.069 E-.13364
G1 X128.887 Y106.51 E-.13382
G1 X128.431 Y106.867 E-.13372
G1 X128.247 Y106.96 E-.04757
;WIPE_END
G1 Z.6 F720
G1 X130.337 Y98.868 F10800
G1 Z.2 F720
G1 E.8 F2100
M204 S800
;TYPE:Solid infill
;WIDTH:0.428866
G1 F1200
G1 X131.445 Y99.976 E.05029
G1 X131.815 Y100.388 E.01777
G1 X132.191 Y100.9 E.02039
G1 X132.514 Y101.447 E.02039
G1 X132.639 Y101.717 E.00955
G1 X129.586 Y98.663 E.13858
G1 X128.982 Y98.398 E.02117
G1 X128.687 Y98.31 E.00988
G1 X132.984 Y102.607 E.19502
G1 X133.147 Y103.316 E.02335
G1 X127.972 Y98.141 E.23486
G1 X127.76 Y98.1 E.00693
M73 Q4 S6
G1 X127.348 Y98.063 E.01327
G1 X133.225 Y103.94 E.26672
G1 X133.245 Y104.505 E.01814
M73 P4 R6
G1 X126.789 Y98.05 E.29298
G1 X126.491 Y98.049 E.00956
G1 X126.268 Y98.074 E.0072
G1 X133.211 Y105.018 E.31513
G1 X133.144 Y105.496 E.01549
G1 X125.783 Y98.135 E.33407
G1 X125.333 Y98.231 E.01477
G1 X128.119 Y101.017 E.12644
G1 X128.266 Y101.061 E.00492
G1 X128.887 Y101.393 E.0226
G1 X129.444 Y101.851 E.02314
G1 X129.851 Y102.345 E.02054
G1 X129.942 Y102.484 E.00533
G1 X130.236 Y103.051 E.0205
G1 X130.271 Y103.169 E.00395
G1 X133.05 Y105.948 E.12612
G1 X132.934 Y106.378 E.01429
G1 X130.444 Y103.888 E.11301
G1 X130.495 Y104.485 E.01923
G1 X132.784 Y106.773 E.10386
M73 C4
G1 X132.617 Y107.153 E.01332
G1 X130.442 Y104.977 E.09873
G1 X130.417 Y105.183 E.00666
G1 X130.34 Y105.421 E.00803
G1 X132.435 Y107.517 E.0951
G1 X132.226 Y107.853 E.0127
G1 X130.206 Y105.833 E.09168
G1 X130.015 Y106.187 E.01291
G1 X132.006 Y108.178 E.09036
G1 X131.766 Y108.485 E.01251
M73 D4
G1 X129.812 Y106.53 E.0887
G1 X129.558 Y106.823 E.01244
G1 X131.508 Y108.772 E.08848
G1 X131.24 Y109.05 E.01239
M73 Q5 S6
G1 X129.292 Y107.102 E.08841
G1 X128.984 Y107.34 E.01249
G1 X130.946 Y109.302 E.08904
G1 X130.64 Y109.542 E.01248
M73 P5 R6
G1 X128.655 Y107.556 E.09011
G1 X128.291 Y107.738 E.01306
G1 X130.319 Y109.766 E.09204
G1 X129.974 Y109.968 E.01283
G1 X127.882 Y107.875 E.09497
G1 X127.448 Y107.987 E.01438
G1 X129.618 Y110.157 E.09848
G1 X129.237 Y110.322 E.01332
G1 X126.937 Y108.022 E.10438
G1 X126.67 Y108.03 E.00857
G1 X126.353 Y107.984 E.01028
G1 X128.969 Y110.6 E.11873
M204 S1000
;WIPE_START
G1 F8640
G1 X126.519 Y108.15 E-.8
;WIPE_END
G1 Z.6 F720
G1 X127.592 Y101.036 F10800
G1 Z.2 F720
G1 E.8 F2100
M204 S800
G1 F1200
G1 X124.912 Y98.355 E.12165
G1 X124.509 Y98.498 E.01372
G1 X126.809 Y100.799 E.10441
G1 X126.695 Y100.791 E.00367
G1 X126.317 Y100.852 E.01229
G1 X124.128 Y98.663 E.09935
G1 X123.772 Y98.853 E.01295
G1 X125.888 Y100.969 E.09603
G1 X125.523 Y101.149 E.01306
G1 X123.305 Y98.932 E.10064
M204 S1000
;WIPE_START
G1 F8640
G1 X125.523 Y101.149 E-.72412
G1 X125.818 Y101.004 E-.07588
;WIPE_END
G1 Z.6 F720
G1 X121.186 Y101.179 F10800
G1 Z.2 F720
G1 E.8 F2100
M204 S800
G1 F1200
G1 X123.443 Y103.436 E.10243
G1 X123.32 Y103.86 E.01417
G1 X121.129 Y101.668 E.09946
G1 X120.963 Y102.048 E.01331
G1 X123.271 Y104.356 E.10475
G1 X123.259 Y104.717 E.01159
G1 X123.303 Y104.934 E.00711
G1 X120.812 Y102.443 E.11305
G1 X120.701 Y102.877 E.01438
G1 X123.466 Y105.643 E.12551
G1 X123.792 Y106.319 E.02408
M73 Q6 S6
G1 X124.178 Y106.838 E.02076
G1 X124.712 Y107.323 E.02315
G1 X125.332 Y107.694 E.02319
G1 X125.618 Y107.795 E.00973
G1 X128.413 Y110.59 E.12685
G1 X127.963 Y110.685 E.01476
M73 P6 R6
G1 X120.602 Y103.324 E.33407
G1 X120.535 Y103.803 E.01552
G1 X127.478 Y110.746 E.3151
G1 X127.254 Y110.771 E.00723
G1 X126.96 Y110.774 E.00944
G1 X120.501 Y104.315 E.29314
G1 X120.521 Y104.881 E.01818
G1 X126.39 Y110.75 E.26636
G1 X125.773 Y110.679 E.01993
G1 X120.599 Y105.504 E.23484
G1 X120.762 Y106.214 E.02338
G1 X125.07 Y110.521 E.19549
G1 X124.457 Y110.307 E.02084
G1 X124.179 Y110.176 E.00986
G1 X121.107 Y107.104 E.13942
G1 X121.232 Y107.374 E.00955
G1 X121.555 Y107.921 E.02039
G1 X121.931 Y108.433 E.02039
G1 X122.303 Y108.846 E.01784
G1 X123.409 Y109.952 E.0502
M204 S1000
M106 S84.15
;LAYER_CHANGE
;Z:0.5
;HEIGHT:0.3
;BEFORE_LAYER_CHANGE
G92 E0.0
;0.5


;WIPE_START
G1 F8640
G1 X122.303 Y108.846 E-.36116
G1 X121.931 Y108.433 E-.12834
G1 X121.555 Y107.921 E-.14668
G1 X121.232 Y107.374 E-.14668
G1 X121.201 Y107.307 E-.01714
;WIPE_END
G1 Z.5 F720
;AFTER_LAYER_CHANGE
;0.5
M104 S210 ; set temperature
G1 Z.9
G1 X124.528 Y102.928 F10800
G1 Z.5 F720
G1 E.8 F2100
M73 Q7 S6
M204 S800
;TYPE:External perimeter
;WIDTH:0.548301
G1 F1993.372
G1 X124.874 Y102.523 E.03215
;WIDTH:0.529202
G1 F2032.831
G1 X125.068 Y102.335 E.01566
;WIDTH:0.557391
G1 F1979.617
G1 X125.263 Y102.147 E.01666
M204 S1000
;WIPE_START
G1 F8640
G1 X125.068 Y102.335 E-.06254
G1 X124.874 Y102.523 E-.06238
G1 X124.528 Y102.928 E-.123
;WIPE_END
G1 E-.55208 F2100
G1 Z.9 F720
G1 X130.497 Y98.765 F10800
G1 Z.5 F720
M73 P7 R6
G1 E.8 F2100
M204 S800
;TYPE:Perimeter
;WIDTH:0.5
G1 F2632
G1 X130.599 Y98.826 E.00646
G1 X131.137 Y99.225 E.03639
G1 X131.632 Y99.675 E.03635
G1 X132.08 Y100.172 E.03635
G1 X132.476 Y100.712 E.03638
G1 X132.773 Y101.214 E.03169
G1 X133.01 Y101.706 E.02967
G1 X133.206 Y102.208 E.02928
G1 X133.395 Y102.856 E.03667
G1 X133.5 Y103.385 E.0293
G1 X133.565 Y103.927 E.02966
G1 X133.586 Y104.511 E.03175
G1 X133.542 Y105.179 E.03637
G1 X133.433 Y105.839 E.03635
G1 X133.258 Y106.485 E.03636
G1 X133.02 Y107.11 E.03634
G1 X132.724 Y107.701 E.03591
G1 X132.157 Y108.55 E.05547
G1 X131.725 Y109.05 E.0359
G1 X131.239 Y109.51 E.03636
G1 X130.71 Y109.919 E.03633
G1 X130.142 Y110.274 E.03639
G1 X129.542 Y110.57 E.03635
G1 X128.916 Y110.805 E.03633
G1 X128.269 Y110.977 E.03637
G1 X127.608 Y111.083 E.03637
G1 X126.94 Y111.123 E.03636
G1 X126.271 Y111.097 E.03638
G1 X125.609 Y111.003 E.03633
G1 X124.958 Y110.845 E.0364
G1 X124.327 Y110.622 E.03636
G1 X123.721 Y110.338 E.03636
G1 X123.147 Y109.995 E.03633
G1 X122.609 Y109.596 E.03639
G1 X122.114 Y109.145 E.03638
G1 X121.666 Y108.648 E.03635
G1 X121.27 Y108.109 E.03634
G1 X120.973 Y107.606 E.03174
G1 X120.736 Y107.114 E.02967
G1 X120.54 Y106.612 E.02928
G1 X120.351 Y105.965 E.03662
G1 X120.237 Y105.371 E.03286
G1 X120.178 Y104.818 E.03022
G1 X120.167 Y104.217 E.03266
G1 X120.217 Y103.563 E.03564
